X: 41986
T: Walls Of Liscarrol, The
R: jig
M: 6/8
K: Dmixolydian
dcA AGE|GED D2E|GEE cEE|GAB cde|
dcA AGE|GED D2E|GEE cEE|EDD D3:|
d2d ecA|d2d ecA|GEE c2c|GAB cde|
[1d2d ecA|d2d ecA|GEE cEE|EDD D3:|
[2dcA AGE|GED D2E|GEE cEE|EDD D3||

